Papirus/64x64/apps/kapman.svg

<?xml version="1.0" encoding="UTF-8" standalone="no"?>
<svg xmlns="http://www.w3.org/2000/svg" height="64" width="64" version="1">
 <path style="opacity:0.2" d="M 56.8768,22.664 33.0008,31 l 1.91,1.332 22.652,-7.906 c -0.208,-0.598 -0.438,-1.184 -0.686,-1.762 z M 7.0508,32 C 7.0382,32.334 7,32.662 7,33 7,47.404 18.596,59 33,59 41.854,59 49.644,54.62 54.336,47.898 L 53.32,47.188 C 48.564,53.158 41.262,57 33,57 18.9332,57 7.578,45.932 7.05,32 Z"/>
 <path style="fill:#fecd38" d="m 33.0008,6 c -14.404,0 -26,11.596 -26,26 0,14.404 11.596,26 26,26 8.8538,0 16.6468,-4.3814 21.338,-11.1032 l -21.338,-14.896 24.564,-8.574 C 54.0368,13.2606 44.3968,6.0008 33.0008,6.0008 Z"/>
 <circle style="fill:#3f3f3f" cy="18" cx="35.001" r="4"/>
 <path style="fill:#ffffff;fill-opacity:1;opacity:0.2" d="M 33 6 C 18.596 6 7 17.596 7 32 C 7 32.167737 7.0105407 32.333038 7.0136719 32.5 C 7.279424 18.329553 18.763737 7 33 7 C 44.061473 7 53.451611 13.85032 57.220703 23.548828 L 57.564453 23.427734 C 54.036453 13.261534 44.396 6 33 6 z M 33.955078 32.666016 L 33 33 L 53.849609 47.554688 C 54.013049 47.335592 54.181288 47.120872 54.337891 46.896484 L 33.955078 32.666016 z"/>
</svg>

<?xml version="1.0" encoding="UTF-8" standalone="no"?>
<svg xmlns="http://www.w3.org/2000/svg" height="64" width="64" version="1">
 <path style="fill:#fecd38" d="m33.001 6c-14.404 0-26 11.596-26 26s11.596 26 26 26c8.8538 0 16.647-4.3814 21.338-11.103l-21.338-14.896 24.564-8.574c-3.528-10.166-13.168-17.426-24.564-17.426z"/>
 <circle style="fill:#3f3f3f" cx="35.001" r="4" cy="18"/>
 <path style="opacity:.2" d="m57.221 23.549-24.221 8.451.955.666 23.609-8.238c-.103-.299-.229-.586-.343-.879zm-50.207 8.951c-.0032.167-.0137.332-.0137.5 0 14.404 11.596 26 26 26 8.854 0 16.647-4.382 21.338-11.104l-.488-.341c-4.733 6.344-12.292 10.445-20.85 10.445-14.236 0-25.721-11.33-25.986-25.5z"/>
 <path style="opacity:.2;fill:#ffffff" d="m33 6c-14.404 0-26 11.596-26 26 0 .168.0105.333.0137.5.2657-14.17 11.75-25.5 25.986-25.5 11.061 0 20.452 6.85 24.221 16.549l.343-.121c-3.528-10.166-13.168-17.428-24.564-17.428zm.955 26.666l-.955.334 20.85 14.555c.163-.219.331-.434.488-.659l-20.383-14.23z"/>
</svg>
